X: 24
T:Stable Lad, The
M:6/8
L:1/8
Q:80
C:Words: Peter Cape, Music: Phil Garland
K:G
d|&quot;G&quot;d2d d2d|dd2- d de|dB2- B AG|&quot;Am&quot;A6-|A3-A2e|!
&quot;D&quot;fff f2f|e2d ddd|d2dB2A|&quot;G&quot;B6-|B6-|B3zdd|!
d2d d BB|&quot;Am&quot;BA2 A3-|A3-A2e|&quot;G&quot;d2B2AG|&quot;Am&quot;A6-|A3-AGG|!
&quot;C&quot;G2g g2f|e2d2 BG|AA2 G2F|G6|z6|z6|z3z2:||
